source-assets/images/rokka-logo.svg

<?xml version="1.0" encoding="UTF-8"?>
<svg viewBox="0 0 206 48" version="1.1" xmlns="http://www.w3.org/2000/svg" xmlns:xlink="http://www.w3.org/1999/xlink">
    <g id="Page-1-Copy-11" stroke="none" stroke-width="1" fill="none" fill-rule="evenodd">
        <g id="Desktop-HD" transform="translate(-52.000000, -53.000000)">
            <g id="Group" transform="translate(52.000000, 53.000000)">
                <path d="M65.6516129,38.6016818 L72.7741935,38.6016818 L72.7741935,28.7196513 L74.7870968,28.7196513 C75.5612903,28.7196513 76.3354839,28.7196513 77.1096774,28.5652445 L82.0645161,38.6016818 L89.8064516,38.6016818 L83.7677419,26.8667705 C86.7096774,25.1682965 88.4129032,22.080162 88.2580645,18.683214 C88.2580645,12.8157584 84.2322581,9.10999691 77.1096774,9.10999691 L65.6516129,9.10999691 L65.6516129,38.6016818 L65.6516129,38.6016818 Z M76.8,15.286266 C79.7419355,15.286266 80.9806452,16.5215198 80.9806452,18.9920274 C80.9806452,21.6169418 79.4322581,22.8521956 76.4903226,22.8521956 L72.7741935,22.8521956 L72.7741935,15.286266 L76.8,15.286266 Z M98.9419355,23.778636 C98.9419355,18.683214 101.419355,15.1318593 105.754839,15.1318593 C110.090323,15.1318593 112.722581,18.5288073 112.722581,23.778636 C112.722581,29.1828714 110.245161,32.5798194 105.754839,32.5798194 C101.419355,32.5798194 98.9419355,29.1828714 98.9419355,23.778636 Z M91.3548387,23.778636 C91.2,27.9476176 92.5935484,31.9621925 95.2258065,34.8959204 C101.264516,40.3001558 110.4,40.3001558 116.283871,34.8959204 C119.070968,31.8077858 120.464516,27.7932109 120.154839,23.6242293 C120.309677,19.6096544 118.916129,15.5950794 116.283871,12.5069449 C110.245161,7.10270945 101.109677,7.10270945 95.2258065,12.5069449 C92.5935484,15.7494862 91.2,19.7640611 91.3548387,23.778636 Z M131.303226,38.6016818 L131.303226,26.5579571 L134.245161,26.5579571 L141.058065,38.6016818 L149.264516,38.6016818 L140.43871,23.4698225 L148.645161,9.10999691 L140.748387,9.10999691 L134.554839,20.5360947 L131.458065,20.5360947 L131.458065,9.10999691 L124.180645,9.10999691 L124.180645,38.4472751 L131.303226,38.4472751 L131.303226,38.6016818 Z M159.329032,38.6016818 L159.329032,26.5579571 L162.270968,26.5579571 L169.083871,38.6016818 L177.290323,38.6016818 L168.464516,23.4698225 L176.516129,9.26440363 L168.619355,9.26440363 L162.425806,20.6905014 L159.329032,20.6905014 L159.329032,9.10999691 L152.206452,9.10999691 L152.206452,38.4472751 L159.329032,38.4472751 L159.329032,38.6016818 Z M177.445161,38.6016818 L185.187097,38.6016818 L186.735484,33.1974464 L196.025806,33.1974464 L197.729032,38.6016818 L205.470968,38.6016818 L195.096774,9.26440363 L187.974194,9.26440363 L177.445161,38.6016818 Z M191.380645,17.4479602 L194.167742,27.175584 L188.593548,27.175584 L191.380645,17.4479602 Z M197.419355,6.63948927 L197.419355,2.31610091 L185.651613,2.31610091 L185.651613,6.48508254 L197.419355,6.48508254 L197.419355,6.63948927 Z" id="rokka-text"></path>
                <g id="rokka-box">
                    <polygon id="Rechteck_6_Kopie_23" opacity="0.8" points="24.7741935 27.3299907 0 13.587792 0 33.96948 24.7741935 47.557272"></polygon>
                    <polygon id="Rechteck_6_Kopie_24" points="24.7741935 27.3299907 49.5483871 13.7421987 49.5483871 33.96948 24.7741935 47.557272"></polygon>
                    <polygon id="Rechteck_6_Kopie_23-2" opacity="0.5" points="49.5483871 13.587792 24.7741935 0 24.7741935 20.381688 49.5483871 33.96948"></polygon>
                    <polygon id="Rechteck_6_Kopie_23-3" opacity="0.3" points="0 13.587792 24.7741935 0 24.7741935 20.381688 0 33.96948"></polygon>
                </g>
            </g>
        </g>
    </g>
</svg>

<svg viewBox="0 0 206 48" xmlns="http://www.w3.org/2000/svg">
    <g fill="#414141" fill-rule="evenodd">
        <path d="M65.652 38.602h7.122V28.72h2.013c.774 0 1.548 0 2.323-.155l4.955 10.037h7.741l-6.038-11.735c2.942-1.699 4.645-4.787 4.49-8.184 0-5.867-4.026-9.573-11.148-9.573H65.652v29.492zM76.8 15.286c2.942 0 4.18 1.236 4.18 3.706 0 2.625-1.548 3.86-4.49 3.86h-3.716v-7.566H76.8zm22.142 8.493c0-5.096 2.477-8.647 6.813-8.647 4.335 0 6.968 3.397 6.968 8.647 0 5.404-2.478 8.8-6.968 8.8-4.336 0-6.813-3.396-6.813-8.8zm-7.587 0c-.155 4.169 1.239 8.183 3.87 11.117 6.04 5.404 15.175 5.404 21.059 0 2.787-3.088 4.18-7.103 3.87-11.272.156-4.014-1.238-8.029-3.87-11.117-6.039-5.404-15.174-5.404-21.058 0-2.632 3.242-4.026 7.257-3.871 11.272zm39.948 14.823V26.558h2.942l6.813 12.044h8.207l-8.826-15.132 8.206-14.36h-7.897l-6.193 11.426h-3.097V9.11h-7.277v29.337h7.122v.155zm28.026 0V26.558h2.942l6.813 12.044h8.206l-8.825-15.132 8.051-14.206h-7.897l-6.193 11.427h-3.097V9.11h-7.123v29.337h7.123v.155zm18.116 0h7.742l1.548-5.405h9.29l1.704 5.405h7.742L195.097 9.264h-7.123l-10.529 29.338zm13.936-21.154l2.787 9.728h-5.574l2.787-9.728zm6.038-10.809V2.316h-11.767v4.17h11.767v.153z"/>
        <path opacity=".8" d="M24.774 27.33L0 13.588v20.381l24.774 13.588z"/>
        <path d="M24.774 27.33l24.774-13.588V33.97L24.774 47.557z"/>
        <path opacity=".5" d="M49.548 13.588L24.774 0v20.382l24.774 13.587z"/>
        <path opacity=".3" d="M0 13.588L24.774 0v20.382L0 33.969z"/>
    </g>
</svg>
